icons/increase-decrease-line.svg

<svg viewBox="0 0 24 24" fill="currentColor" xmlns="http://www.w3.org/2000/svg"><path d="M3.00488 3.00275H21.0049C21.5572 3.00275 22.0049 3.45046 22.0049 4.00275V20.0027C22.0049 20.555 21.5572 21.0027 21.0049 21.0027H3.00488C2.4526 21.0027 2.00488 20.555 2.00488 20.0027V4.00275C2.00488 3.45046 2.4526 3.00275 3.00488 3.00275ZM4.00488 5.00275V19.0027H20.0049V5.00275H4.00488ZM9.00488 11.0027H11.0049V13.0027H9.00488V15.0027H7.00488V13.0027H5.00488V11.0027H7.00488V9.00275H9.00488V11.0027ZM13.0049 11.0027H19.0049V13.0027H13.0049V11.0027Z"/></svg>

<svg xmlns="http://www.w3.org/2000/svg" viewBox="0 0 24 24">
    <g>
        <path fill="none" d="M0 0h24v24H0z"/>
        <path d="M3 3h18a1 1 0 0 1 1 1v16a1 1 0 0 1-1 1H3a1 1 0 0 1-1-1V4a1 1 0 0 1 1-1zm1 2v14h16V5H4zm5 6h2v2H9v2H7v-2H5v-2h2V9h2v2zm4 0h6v2h-6v-2z"/>
    </g>
</svg>
